X: 142
T:Illegible March. JaW.142
M:C
L:1/8
Q:160
S:James Winder Ms, Lancashire, 1835-41
R:March
O:England
A:Wyresdale,Lancashire
H:1/8
Z:vmp.Chris Partington, Aug 2004
K:F
f3g .f.f.f.f|a3b .a.a.a.a|c'aff bgee|f3g/e/f2z2|!
a3b/g/ .a.a.a.a|c'bag fgab|a2g>g g2z2|g2e>f g2e>f|!
g/f/e/f/ d>d d2zf|f2d>f f2d>f|e2c>c c2zc/d/|e3f .g.g.g.g|\
a3b .c'.c'.c'.c'|!
dcde fefa|agfe gfed|c2zg/e/ .c.c.d.d|c2zg/e/ .c.c.d.d|c2c>c c2z2||!
g4e4 f4d4|c=Bcd ecge|d2d>d d2z2|.f.f(gf) .e.e(fe)|!
.f.f(gf) .d.d(ed)|c=Bcd efga|b2b>b b2zg/a/|b2b>b b2z (3c/d/e/ |!
f3g ac'ba|g2g>g g2zc|c2A>c c2A>c|c2{fg}ag fedc|!
B2G>B B2G>B|B2{ef}gf edcB|A3B .c.c.c.c|d3e .f.f.f.f|!
gfga babc'|"sic"d'c'ba|f2zc'/a/ .f.f.g.g|f2zc'/a/ .f.f.g.g|f2f>ff2|]
